X:1
T:Domine
T:Constantijn Huygens
T:Domine Deus meus
T:Psalmus 30:4,5
C:Constantijn Huygens
%%score 1 { ( 2 3 ) | 4 }
L:1/8
Q:1/4=70
M:4/4
K:Eb
V:1 treble nm="Voice" snm="V"
V:2 treble nm="Organ" snm="Org."
V:3 treble 
V:4 bass 
V:1
 c3 c =B4 | c2 cc d2 d2 | e2 cc f4- | f2 ee g4- | g4 =B2 c2 | d2 dd d2 B2 | ee e4 f2 | g>c c4 =B2 | %8
w: Do- mi- ne,|Do- mi- ne De- us|me- us, cla- ma-|* vi, cla- ma-|* vi ad|te et sa- na- sti,|et sa- na- sti,|et sa- na- sti|
 c8 :: G3 G G4 | z2 Gc B3 F | G4 z2 A>B | cEEF G>A B2- | B2 BB c4 | d4 z2 e2 | =e3 f f4 | %16
w: me.|Do- mi- ne|e- du- xis- ti,|_ e- du-|xis- ti ab in- fer- no a-|* ni- mam me-|am, sal-|va- sti me,|
 z2 f2 f3 g | g3 f e3 d | c3 B A4- | A2 G2 G4 | G8 | z8 |[M:3/4] e3 B B2 | c3 d ef | d>c B2 e2 | %25
w: sal- va- sti|me a des- cen-|den- ti- bus|_ in la-|cum.||Psal- li- te,|psal- li- te Do-|* mi- no san-|
 e/f/g/f/ f4 |[M:4/4] e4 z BBB | =B3 B c4 | z GGG A>A A2 | z2 z =A A2 AA | =A>A B4 F2 | G2 GG e4- | %32
w: cti _ _ _ e-|jus, et con- fi-|te- mi- ni,|et con- fi- te- mi- ni|me- mo- ri- ae|san- cti- ta- tis|e- jus, me- mo-|
 e2 dc =Bc d2- | d2 G2 g4- | gf e>d d4 | c8 :| %36
w: * ri- ae san- cti- ta-|* tis, san-|* cti- ta- tis e-|jus,|
V:2
 G8- | G2 A2 B4 | c4 d4 | e8 | d4 G4 | =B4 _B4- | B6 A2 | G8- | G8 :: [CEG]8- | [CEG]4 [B,DF]4 | %11
 G8 | A4 G4- | G2 F2 G2 =A2 | [B,DFB]4 z2 [EAc]2 | c8 | c4 [Dd]2 [=Bd]2 | [EGce]4 [CEAc]4 | %18
 [A,CFA]4 [F,A,DF]4 | D2 E2 D4 | C8 | z8 |[M:3/4] B2 G2 G2 | A2 G2 [FA]2 | B2 E2 B2 | %25
 G2 d/c/B/c/ B/A/G/A/ |[M:4/4] [B,G-]8 | G8 | E8 | [CF]8 | F8 | [B,G]8 | G8 | =A4 =B4 | d4 G4 | %35
 [C=EG]8 :| %36
V:3
 [CE]4 [=B,D]4 | C4 [DF]4 | [EG]4 G4 | [Gc]8 | [G=B]4 D2 E2 | [DG]8 | [EG]4 [DF]4 | [=B,D]2 E2 D4 | %8
 [C=E]8 :: x8 | x8 | B,4 E4 | [CE]2 C2 [B,E]4- | [B,E]2 [B,D]2 [CE]4 | x8 | G4 [FA]4- | [FA]8 | %17
 x8 | x8 | D2 E2 C2 =B,2 | x8 | x8 |[M:3/4] x6 | x6 | x6 | x6 |[M:4/4] x8 | =B,4 E4 | %28
 [G,C]4 [A,C]4 | x8 | D2 E2 D2 B,A, | [G,E]8 | C4 D4 | D8 | =B,4 C2 B,2 | x8 :| %36
V:4
 C,4 G,2 F,2 | E,4 D,4 | C,6 =B,,2 | C,4 C4 | G,8 | G,4 F,2 E,2- | E,4 B,4 | G,4 G,,4 | C,8 :: %9
 C,8 | C,4 D,4 | E,2 D,2 C,2 B,,2 | A,,2 A,2 E,4 | E,2 D,2 C,4 | B,,4 B,2 A,2 | G,4 F,4- | %16
 F,2 E,2 D,4 | C,2 C3 B, A,2- | A,G, F,3 E,D,C, | =B,,2 C,2 G,,4 | C,8 | z8 |[M:3/4] E,4 E,2 | %23
 A,3 B, C2 | B,A, G,4 | E,2 B,,4 |[M:4/4] E,8 | D,4 C,4 | C,2 B,,2 A,,4- | A,,2 G,,2 F,,2 F,2 | %30
 F,2 E,2 D,4 | E,4 E,4 | E,2 F,2 G,4 | G,,8 | G,,8 | C,8 :| %36

